svg/fluentui-system-icons/ic_fluent_document_mention_16_regular.svg

<svg width="16" height="16" viewBox="0 0 16 16" fill="none" xmlns="http://www.w3.org/2000/svg">
<path d="M6 1C4.89543 1 4 1.89543 4 3V5.20703C4.32228 5.11588 4.65659 5.05337 5 5.02242V3C5 2.44772 5.44772 2 6 2H9V4.5C9 5.32843 9.67157 6 10.5 6H13V13C13 13.5523 12.5523 14 12 14H8.38607C8.43726 14.3523 8.36296 14.7041 8.18911 15H12C13.1046 15 14 14.1046 14 13V5.41421C14 5.01639 13.842 4.63486 13.5607 4.35355L10.6464 1.43934C10.3651 1.15804 9.98361 1 9.58579 1H6ZM12.7929 5H10.5C10.2239 5 10 4.77614 10 4.5V2.20711L12.7929 5ZM6.86226 14.79C6.51922 14.8988 6.16322 14.9662 5.80008 14.9901C5.70055 14.9967 5.60048 15 5.5 15C3.01472 15 1 12.9853 1 10.5C1 8.54067 2.25221 6.87381 4 6.25606C4.31841 6.14352 4.65327 6.06579 5 6.02746C5.16417 6.00932 5.331 6 5.5 6C7.98528 6 10 8.01472 10 10.5C10 11.8013 9.10972 12.84 8.02 12.84C7.49575 12.84 7.10438 12.6313 6.83778 12.2612C6.50386 12.6186 6.04794 12.84 5.5 12.84C5.32347 12.84 5.15649 12.817 5 12.7739C4.58829 12.6605 4.24923 12.4079 4 12.0679C3.69092 11.6464 3.52 11.0907 3.52 10.5C3.52 9.90933 3.69092 9.3536 4 8.93206C4.24923 8.59214 4.58829 8.33947 5 8.22608C5.15649 8.18298 5.32347 8.16 5.5 8.16C5.86785 8.16 6.19422 8.25977 6.47058 8.43345C6.56296 8.27025 6.73861 8.16 6.94 8.16C7.21338 8.16 7.43931 8.36315 7.47507 8.62673L7.48 8.7V10.5C7.48 11.3951 7.68241 11.76 8.02 11.76C8.47313 11.76 8.92 11.2387 8.92 10.5C8.92 8.61119 7.38881 7.08 5.5 7.08C5.33016 7.08 5.16321 7.09238 5 7.11629C4.64617 7.16812 4.30993 7.27414 4 7.42564C2.86307 7.9814 2.08 9.14925 2.08 10.5C2.08 11.8893 2.90835 13.085 4.09808 13.6204C4.5259 13.8129 5.00044 13.92 5.5 13.92C5.50904 13.92 5.51808 13.92 5.52711 13.9199C5.55273 13.9197 5.57831 13.9192 5.60384 13.9185C5.85274 13.9111 6.09732 13.8771 6.33471 13.8175L6.53563 13.7605L6.67583 13.7127C6.94428 13.6144 7.24039 13.7425 7.35477 14C7.35722 14.0055 7.35959 14.0111 7.36187 14.0167C7.36419 14.0224 7.36642 14.0282 7.36856 14.0341C7.46255 14.2908 7.34946 14.5728 7.11425 14.697L7.04713 14.7268L6.86226 14.79ZM5 9.43718C4.75381 9.65733 4.6 10.0433 4.6 10.5C4.6 10.9567 4.75381 11.3427 5 11.5628C5.14042 11.6884 5.31088 11.76 5.5 11.76C6.02069 11.76 6.4 11.2171 6.4 10.5C6.4 9.78287 6.02069 9.24 5.5 9.24C5.31088 9.24 5.14042 9.31161 5 9.43718Z" fill="#212121"/>
</svg>

<svg xmlns="http://www.w3.org/2000/svg" width="16" height="16"><path d="M6 1a2 2 0 0 0-2 2v2.207a5.48 5.48 0 0 1 1-.185V3a1 1 0 0 1 1-1h3v2.5A1.5 1.5 0 0 0 10.5 6H13v7a1 1 0 0 1-1 1H8.386c.051.352-.023.704-.197 1H12a2 2 0 0 0 2-2V5.414a1.5 1.5 0 0 0-.44-1.06l-2.914-2.915A1.5 1.5 0 0 0 9.586 1H6Zm6.793 4H10.5a.5.5 0 0 1-.5-.5V2.207L12.793 5Zm-5.93 9.79A4.485 4.485 0 0 1 5.5 15a4.5 4.5 0 1 1 4.5-4.5c0 1.301-.89 2.34-1.98 2.34-.524 0-.916-.209-1.182-.579a1.79 1.79 0 0 1-1.338.579c-.177 0-.344-.023-.5-.066a1.844 1.844 0 0 1-1-.706c-.31-.422-.48-.977-.48-1.568 0-.59.17-1.146.48-1.568.25-.34.588-.593 1-.706.156-.043.323-.066.5-.066.368 0 .694.1.97.273a.539.539 0 0 1 1.005.194l.005.073v1.8c0 .895.202 1.26.54 1.26.453 0 .9-.521.9-1.26a3.42 3.42 0 1 0-3.42 3.42h.027c.026 0 .051 0 .077-.002.249-.007.493-.04.73-.1l.202-.057.14-.048a.54.54 0 0 1 .438.984l-.067.03-.185.063ZM5 9.437c-.246.22-.4.606-.4 1.063 0 .457.154.843.4 1.063a.74.74 0 0 0 .5.197c.52 0 .9-.543.9-1.26s-.38-1.26-.9-1.26a.74.74 0 0 0-.5.197Z"/></svg>
